icons/eye-16.svg

<svg xmlns="http://www.w3.org/2000/svg" width="16" height="16" viewBox="0 0 16 16"><path d="M8 2c1.981 0 3.671.992 4.933 2.078 1.27 1.091 2.187 2.345 2.637 3.023a1.62 1.62 0 010 1.798c-.45.678-1.367 1.932-2.637 3.023C11.67 13.008 9.981 14 8 14c-1.981 0-3.671-.992-4.933-2.078C1.797 10.83.88 9.576.43 8.898a1.62 1.62 0 010-1.798c.45-.677 1.367-1.931 2.637-3.022C4.33 2.992 6.019 2 8 2zM1.679 7.932a.12.12 0 000 .136c.411.622 1.241 1.75 2.366 2.717C5.176 11.758 6.527 12.5 8 12.5c1.473 0 2.825-.742 3.955-1.715 1.124-.967 1.954-2.096 2.366-2.717a.12.12 0 000-.136c-.412-.621-1.242-1.75-2.366-2.717C10.824 4.242 9.473 3.5 8 3.5c-1.473 0-2.825.742-3.955 1.715-1.124.967-1.954 2.096-2.366 2.717zM8 10a2 2 0 11-.001-3.999A2 2 0 018 10z"/></svg>

<svg xmlns="http://www.w3.org/2000/svg" width="16" height="16" viewBox="0 0 16 16">
  <defs/>
  <path d="M8,2 C9.981,2 11.671,2.992 12.933,4.078 C14.203,5.169 15.12,6.423 15.57,7.101 C15.933,7.645 15.933,8.355 15.57,8.899 C15.12,9.577 14.203,10.831 12.933,11.922 C11.67,13.008 9.981,14 8,14 C6.019,14 4.329,13.008 3.067,11.922 C1.797,10.83 0.88,9.576 0.43,8.898 C0.067,8.354 0.067,7.644 0.43,7.1 C0.88,6.423 1.797,5.169 3.067,4.078 C4.33,2.992 6.019,2 8,2 Z M1.679,7.932 C1.651,7.973 1.651,8.027 1.679,8.068 C2.09,8.69 2.92,9.818 4.045,10.785 C5.176,11.758 6.527,12.5 8,12.5 C9.473,12.5 10.825,11.758 11.955,10.785 C13.079,9.818 13.909,8.689 14.321,8.068 C14.349,8.027 14.349,7.973 14.321,7.932 C13.909,7.311 13.079,6.182 11.955,5.215 C10.824,4.242 9.473,3.5 8,3.5 C6.527,3.5 5.175,4.242 4.045,5.215 C2.921,6.182 2.091,7.311 1.679,7.932 Z M8,10 C6.895,10 6,9.105 6,8 C6,6.895 6.895,6 8,6 C9.105,6 10,6.895 10,8 C10,9.105 9.105,10 8,10 Z"/>
</svg>
